X: 3733
T: Bird In The Bush, The
R: reel
M: 4/4
K: Gmajor
|:d2eB dB~B2|dBAB GAAG|EGAd BG~G2|BGBd g2ge|
d2eB dB~B2|dBAB ~G2GE|DEGA B2eB|dBAd BG~G2:|
|:Bdef g2fg|afdf gfed|Bdef g~g2b|agab g~g2a|
bg~g2 agef|~g2fe dBGE|DEGA B2eB|dBAd BG~G2:|

